app/assets/images/heroicons/micro/chat-bubble-bottom-center.svg

<svg width="16" height="16" viewBox="0 0 16 16" fill="none" xmlns="http://www.w3.org/2000/svg">
<path d="M1 8.74053C1 9.72321 1.71341 10.5653 2.68906 10.6827C3.5937 10.7915 4.50678 10.8729 5.42746 10.926C5.78969 10.9469 6.11506 11.1572 6.27733 11.4817L7.32918 13.5854C7.45622 13.8395 7.71592 14 8 14C8.28408 14 8.54378 13.8395 8.67082 13.5854L9.72265 11.4817C9.88492 11.1572 10.2103 10.9469 10.5725 10.9261C11.4932 10.873 12.4063 10.7916 13.3109 10.6828C14.2866 10.5654 15 9.72332 15 8.74062V4.25938C15 3.27668 14.2866 2.43458 13.3109 2.3172C11.57 2.10777 9.79777 2 8.00039 2C6.20273 2 4.43025 2.10781 2.68906 2.3173C1.71341 2.43469 1 3.27679 1 4.25947V8.74053Z" fill="black"/>
</svg>

<svg xmlns="http://www.w3.org/2000/svg" viewBox="0 0 16 16" fill="currentColor" aria-hidden="true" data-slot="icon">
  <path d="M1 8.74c0 .983.713 1.825 1.69 1.943.904.108 1.817.19 2.737.243.363.02.688.231.85.556l1.052 2.103a.75.75 0 0 0 1.342 0l1.052-2.103c.162-.325.487-.535.85-.556.92-.053 1.833-.134 2.738-.243.976-.118 1.689-.96 1.689-1.942V4.259c0-.982-.713-1.824-1.69-1.942a44.45 44.45 0 0 0-10.62 0C1.712 2.435 1 3.277 1 4.26v4.482Z"/>
</svg>
